X:30
T: Paddy Cronin's
S: "Johnny O'Leary of Sliabh Luachra" (#340)
Z: B.Black
L: 1/8
M: 4/4
R: reel
K: Ador
EAAG A2 Bd|(3efg dg egdc|BGGF GAGE|D2 B,D GABG|
EAAG A2 Bd|(3efg dg egdc|dg g2 dgba|1 gedB BAAG :|2\
gedB BA A2||
a2 ea agea|a2 ba agef|g2 dg egdB|g2 ba gedg|
a2 ea agea|agbg agef|dg g2 dgba|gedB BA A2 :|
